X: 18
T: Foxhunter, The
Z: RheaP
S: https://thesession.org/tunes/482#setting47670
R: slip jig
M: 9/8
L: 1/8
K: Dmaj
cAc cAc d2B|cAc cAc B2A|cAc cAc d2f|ecA ABc B2A|
f3 f2e cde|f2B BGB d2B|e3 e2d cde|ecA ABc B2A|
f3 f2e cde|f2B BGB d2B|ede e2d cde|eaA ABc B2A|
cac cac d2B|cac cac B2A|cac cac d2B|ecA ABc B2A|
cac cac d2B|cac cac B2A|ccc cac dcd|ecA ABc B2A|
fdf f2e cde|f2B BGB d2B|ede e2d cde|ecA ABc B2A|
fdf f2e cde|f2B BGB d2B|ede e2d cde|eaA ABc B2A|

